X: 31133
T: Paddy Fahey's
R: reel
M: 4/4
K: Gmajor
B2 dB DFBd|c=BcA FAcA|B2 dB DFBd|c=BcA BGGA|
BDGA BDGB|ADFA c2 =Bc|d g3 dcBd|1 c=BcF DGGA:|2 c=BcF DGBd||
g2 dg Bdge|=f2 cf Acfa|gfgd BcdB|dg (3fga g3 a|
(3bag (3agf gfdc|(3Bcd BG D2 =FA|d~g3 dc (3Bcd|1 cBc=F DGBd:|2 cBcF DGGA||

